invoice-text-minus.svg

<svg fill="currentColor" viewBox="0 0 24 24"><path d="M3 3v19l3-2 3 2 3-2 1.3.86c-.2-.58-.3-1.21-.3-1.86a6.005 6.005 0 0 1 8-5.66V3zm14 4v2H7V7zm-2 4v2H7v-2zm0 7v2h8v-2z"/></svg>

<svg  viewBox="0 0 24 24" fill="currentColor"><path  d="M3 3V22L6 20L9 22L12 20L13.3 20.86C13.1 20.28 13 19.65 13 19C13 15.69 15.69 13 19 13C19.7 13 20.37 13.12 21 13.34V3H3M17 7V9H7V7H17M15 11V13H7V11H15M15 18V20H23V18H15Z"/></svg>
